src/img/svg/heroStarR.svg

<svg width="156" height="231" viewBox="0 0 156 231" fill="none" xmlns="http://www.w3.org/2000/svg">
<path d="M33.3565 198.07L84.5805 131.576L0.677256 133.933L81.2024 110.247L11.9378 62.8369L91.0062 91.0061L62.8369 11.9377L110.247 81.2023L133.933 0.677197L131.576 84.5805L198.07 33.3565L146.846 99.8502L230.749 97.4932L150.224 121.179L219.488 168.589L140.42 140.42L168.589 219.488L121.179 150.224L97.4932 230.749L99.8503 146.846L33.3565 198.07Z" fill="url(#paint0_linear_38_128)"/>
<defs>
<linearGradient id="paint0_linear_38_128" x1="-5.42788" y1="-42.1" x2="177.345" y2="101.526" gradientUnits="userSpaceOnUse">
<stop offset="0.545011" stop-color="#FFE3E3"/>
<stop offset="1" stop-color="white" stop-opacity="0"/>
</linearGradient>
</defs>
</svg>

<svg width="156" height="231" fill="none" xmlns="http://www.w3.org/2000/svg"><path d="m33.356 198.07 51.224-66.494-83.903 2.357 80.525-23.686-69.264-47.41 79.068 28.17-28.17-79.07 47.411 69.265L133.933.677l-2.357 83.903 66.494-51.224-51.224 66.494 83.903-2.357-80.525 23.686 69.264 47.41-79.068-28.169 28.169 79.068-47.41-69.264-23.686 80.525 2.357-83.903-66.493 51.224Z" fill="url(#a)"/><defs><linearGradient id="a" x1="-5.428" y1="-42.1" x2="177.345" y2="101.526" gradientUnits="userSpaceOnUse"><stop offset=".545" stop-color="#FFE3E3"/><stop offset="1" stop-color="#fff" stop-opacity="0"/></linearGradient></defs></svg>
